!!!!SEGMENT: Snf0237-Pange_lingua_gloriosi_II--Sacrorum_hymnorum_liber_primus
!!!id: Snf0237
!!!AGN: Motet
!!!SCT: Edwards, Gasch, Tröster (2022)
!!!voices: 4
!!!COM: Ludwig Senfl
!!!OTL: Pange, lingua, gloriosi II (Sacrorum hymnorum liber primus)
**kern	**text	**kern	**text	**kern	**text	**kern	**text
*part4	*part4	*part3	*part3	*part2	*part2	*part1	*part1
*staff4	*staff4	*staff3	*staff3	*staff2	*staff2	*staff1	*staff1
*I"Bassus	*	*I"Tenor	*	*I"Altus	*	*I"Superius	*
*I'B	*	*I'T	*	*I'A	*	*I'S	*
*clefF4	*	*clefGv2	*	*clefGv2	*	*clefG2	*
*	*	*	*	*	*	*	*
*k[]	*	*k[]	*	*k[]	*	*k[]	*
*	*	*	*	*	*	*	*
*M3/1	*	*M3/1	*	*M3/1	*	*M3/1	*
*met(O)	*	*met(O)	*	*met(O)	*	*met(O)	*
!!section: Prima pars: Pange, lingua, gloriosi
!!!OMD: Prima pars: Pange, lingua, gloriosi
=1	=1	=1	=1	=1	=1	=1	=1
1%3r	.	[0.E	Pan-	2.E	Pan-	1r	.
.	.	.	.	4F	.	.	.
.	.	.	.	2.G	-ge,	2.e	Pan-
.	.	.	.	4A	.	4f	.
.	.	.	.	2B	lin-	2.g	-ge,
.	.	.	.	2c	.	.	.
.	.	.	.	.	.	4a	.
=2	=2	=2	=2	=2	=2	=2	=2
1%3r	.	0.E]	.	2B	.	2b	lin-
.	.	.	.	1e	.	2cc	.
.	.	.	.	.	.	2b	.
.	.	.	.	2c	.	1a	.
.	.	.	.	1B	.	.	.
.	.	.	.	.	.	2g#i	.
=3	=3	=3	=3	=3	=3	=3	=3
2.D	Pan-	0.F	-ge,	1A	-gua,	1a	-gua,
4E	.	.	.	.	.	.	.
2.F	-ge,	.	.	2.D	pan-	2r	.
.	.	.	.	.	.	2.A	glo-
4G	.	.	.	4E	.	.	.
1A	lin-	.	.	2.F	-ge,	.	.
.	.	.	.	.	.	4B	.
.	.	.	.	.	.	[2c	-ri-
.	.	.	.	4G	.	.	.
=4	=4	=4	=4	=4	=4	=4	=4
1AA	-gua,	[0.E	lin-	1A	lin-	4c]	.
.	.	.	.	.	.	4d	.
.	.	.	.	.	.	2.e	-o-
1r	.	.	.	1G	-gua,	.	.
.	.	.	.	.	.	4f	.
.	.	.	.	.	.	2g	.
2.AA	glo-	.	.	2r	.	2.c	.
.	.	.	.	[2E	glo-	.	.
4BB	.	.	.	.	.	4d	.
=5	=5	=5	=5	=5	=5	=5	=5
2.C	-ri-	0.E]	.	4E]	.	2.e	.
.	.	.	.	4F	.	.	.
.	.	.	.	2.G	-ri-	.	.
4D	.	.	.	.	.	4f	.
2.E	-o-	.	.	.	.	2g	.
.	.	.	.	4A	.	.	.
.	.	.	.	2.B	-o-	2.e	.
4F	.	.	.	.	.	.	.
1G	.	.	.	.	.	.	.
.	.	.	.	4A	.	4f	.
.	.	.	.	4B	.	[2g	.
.	.	.	.	4c	.	.	.
=6	=6	=6	=6	=6	=6	=6	=6
1GG	-si,	0.D	-gua,	2d	.	4g]	.
.	.	.	.	.	.	4a	.
.	.	.	.	2D	.	2b	.
1r	.	.	.	2F	.	2a	.
.	.	.	.	2G	.	1g	.
1r	.	.	.	1A	.	.	.
.	.	.	.	.	.	2f#i	.
=7	=7	=7	=7	=7	=7	=7	=7
1.GG	glo-	0.G	glo-	1.B	.	0g	-si,
2AA	.	.	.	2c	.	.	.
2BB	.	.	.	2d	.	2r	.
2GG	-ri-	.	.	2B	.	2d	glo-
=8	=8	=8	=8	=8	=8	=8	=8
1.C	-o-	0.G	-ri-	2c	.	2e	.
.	.	.	.	1e	.	2c	-ri-
.	.	.	.	.	.	2e	-o-
2D	.	.	.	1d	.	2f	.
1E	.	.	.	.	.	2g	.
.	.	.	.	2c	.	2e	.
=9	=9	=9	=9	=9	=9	=9	=9
2D	.	1.A	-o-	2d	.	2f	.
1F	.	.	.	2c	.	1a	.
.	.	.	.	2d	.	.	.
2G	.	2B	.	1e	.	1g	.
1A	.	2c	.	.	.	.	.
.	.	2A	.	2c	.	2f#i	.
=10	=10	=10	=10	=10	=10	=10	=10
2G	.	2B	.	1d	.	0g	-si
2GG	.	1d	.	.	.	.	.
2BB	.	.	.	2D	.	.	.
2C	.	1c	.	2E	.	.	.
1D	.	.	.	2F	.	1r	.
.	.	2B	.	4D	.	.	.
.	.	.	.	4E	.	.	.
=11	=11	=11	=11	=11	=11	=11	=11
1.C	.	0c	-si	1.G	.	2r	.
.	.	.	.	.	.	2c	cor-
.	.	.	.	.	.	2e	.
2FF	.	.	.	1F	.	2f	.
1C	-si	1r	.	.	.	1g	.
.	.	.	.	2E	.	.	.
=12	=12	=12	=12	=12	=12	=12	=12
1.FF	cor-	0.c	cor-	1.F	-si	1.a	.
2GG	.	.	.	1E	cor-	2b	.
1AA	-po-	.	.	.	.	2cc	.
.	.	.	.	4D	.	2a	.
.	.	.	.	4C	.	.	.
=13	=13	=13	=13	=13	=13	=13	=13
1GG	-ris,	0.d	.	1G	-po-	2b	.
.	.	.	.	.	.	1dd	-po-
1r	.	.	.	1F	.	.	.
.	.	.	.	.	.	1cc	.
1r	.	.	.	1G	-ris	.	.
.	.	.	.	.	.	2b	.
=14	=14	=14	=14	=14	=14	=14	=14
2r	.	0.c	-po-	2C	.	2.cc	.
1C	cor-	.	.	2G	my-	.	.
.	.	.	.	.	.	4b	.
.	.	.	.	2E	.	2g	.
2.AA	-po-	.	.	1A	.	2a	.
.	.	.	.	.	.	1e	-ris,
4BB	.	.	.	.	.	.	.
2C	.	.	.	2G	.	.	.
=15	=15	=15	=15	=15	=15	=15	=15
2FF	.	0.c	-ris	2A	.	2r	.
1C	.	.	.	2G	.	2g	cor-
.	.	.	.	1A	-ste-	2e	.
2.AA	-ris	.	.	.	.	1a	.
.	.	.	.	1e	.	.	.
4BB	.	.	.	.	.	.	.
2C	.	.	.	.	.	2g	.
=16	=16	=16	=16	=16	=16	=16	=16
2.FF	my-	0.c	my-	1.f	-ri-	1.a	.
4GG	.	.	.	.	.	.	.
4AA	.	.	.	.	.	.	.
4FF	.	.	.	.	.	.	.
2.C	.	.	.	1.e	-um,	2g	-po-
.	.	.	.	.	.	1g	-ris
4D	.	.	.	.	.	.	.
4E	.	.	.	.	.	.	.
4C	.	.	.	.	.	.	.
=17	=17	=17	=17	=17	=17	=17	=17
1G	-ste-	0.B	.	1d	my-	2r	.
.	.	.	.	.	.	1g	my-
2.E	.	.	.	1G	.	.	.
.	.	.	.	.	.	2.e	-ste-
4F	.	.	.	.	.	.	.
2G	.	.	.	1E	.	.	.
.	.	.	.	.	.	4f	.
2E	.	.	.	.	.	2g	.
=18	=18	=18	=18	=18	=18	=18	=18
1.F	-ri-	0.A	-ste-	1A	-ste-	1c	.
.	.	.	.	1D	.	1f	.
4E	.	.	.	.	.	.	.
4D	.	.	.	.	.	.	.
2C	.	.	.	2E	.	2e	.
2D	.	.	.	2F	.	[2d	.
=19	=19	=19	=19	=19	=19	=19	=19
0.GG	-um,	0.B	-ri-	0.G	.	2d]	.
.	.	.	.	.	.	2.g	.
.	.	.	.	.	.	8fL	.
.	.	.	.	.	.	8eJ	.
.	.	.	.	.	.	2d	.
.	.	.	.	.	.	2e	.
.	.	.	.	.	.	[2f	.
=20	=20	=20	=20	=20	=20	=20	=20
1FF	.	0c	-um,	0A	.	2f]	.
.	.	.	.	.	.	1.a	.
1F	my-	.	.	.	.	.	.
1G	-ste-	1B	.	1E	.	4g	.
.	.	.	.	.	.	4f	.
.	.	.	.	.	.	2g	.
=21	=21	=21	=21	=21	=21	=21	=21
1E	.	1G	.	1e	-ri-	1.g	-ri-
1F	.	0A	.	0c	-um,	.	.
.	.	.	.	.	.	4f	.
.	.	.	.	.	.	4e	.
1FF	-ri-	.	.	.	.	1f	.
=22	=22	=22	=22	=22	=22	=22	=22
0.C	-um,	0.G	.	2r	.	1g	-um,
.	.	.	.	2.c	my-	.	.
.	.	.	.	.	.	2r	.
.	.	.	.	4d	.	.	.
.	.	.	.	4e	.	2.c	san-
.	.	.	.	4f	.	.	.
.	.	.	.	2g	.	.	.
.	.	.	.	.	.	4d	.
.	.	.	.	4c	-ste-	4e	.
.	.	.	.	4d	.	4f	.
=23	=23	=23	=23	=23	=23	=23	=23
1%3r	.	1%3r	.	4e	.	4g	.
.	.	.	.	4f	.	4a	.
.	.	.	.	1g	.	4b	.
.	.	.	.	.	.	4cc	.
.	.	.	.	.	.	4dd	.
.	.	.	.	.	.	4ee	.
.	.	.	.	4f	.	1dd	.
.	.	.	.	4e	.	.	.
.	.	.	.	2d	.	.	.
.	.	.	.	2e	.	4cc	-gui-
.	.	.	.	.	.	4b	.
=24	=24	=24	=24	=24	=24	=24	=24
1%3r	.	1%3r	.	2f	.	2a	.
.	.	.	.	2e	.	1g	.
.	.	.	.	2c	.	.	.
.	.	.	.	2e	.	2cc	-nis-
.	.	.	.	1d	-ri-	4b	.
.	.	.	.	.	.	2a	-que,
.	.	.	.	.	.	8gL	.
.	.	.	.	.	.	8fJ	.
=25	=25	=25	=25	=25	=25	=25	=25
[0.C	san-	0.G	san-	1c	-um,	1e	.
.	.	.	.	2r	.	2r	.
.	.	.	.	2.e	san-	2.g	san-
.	.	.	.	4d	.	4f	.
.	.	.	.	4c	.	4e	.
.	.	.	.	4B	.	4d	.
=26	=26	=26	=26	=26	=26	=26	=26
1C]	.	2G	-gui-	1c	.	1e	.
.	.	[0A	.	.	.	.	.
0D	-gui-	.	.	2F	-gui-	2d	-gui-
.	.	.	.	2.f	-nis-	2.a	-nis-
.	.	.	.	4e	.	4g	.
.	.	2A_	.	[2d	-que	[2f	-que,
=27	=27	=27	=27	=27	=27	=27	=27
[0.F	-nis-	2A]	.	2d]	.	2f]	.
.	.	2A	-nis-	4c	.	4e	.
.	.	.	.	4B	.	4d	.
.	.	[0c	.	1A	.	2c	.
.	.	.	.	.	.	2.cc	san-
.	.	.	.	2r	.	.	.
.	.	.	.	.	.	4b	.
.	.	.	.	[2A	pre-	4a	.
.	.	.	.	.	.	4g	.
=28	=28	=28	=28	=28	=28	=28	=28
1F]	.	1c]	.	4A]	.	1a	.
.	.	.	.	4B	.	.	.
.	.	.	.	4c	.	.	.
.	.	.	.	4d	.	.	.
[0E	-que	2c	-que	4e	.	1g	-gui-
.	.	.	.	4d	.	.	.
.	.	[1.B	.	4e	.	.	.
.	.	.	.	4f	.	.	.
.	.	.	.	1g	.	2.e	-nis-
.	.	.	.	.	.	4f	.
=29	=29	=29	=29	=29	=29	=29	=29
1E]	.	1.B]	.	2.G	-ti-	1g	-que
.	.	.	.	4A	.	.	.
[0D	pre-	.	.	4B	.	1r	.
.	.	.	.	4c	.	.	.
.	.	2B	pre-	1d	.	.	.
.	.	[1A	.	.	.	2r	.
.	.	.	.	2D	-o-	2f	pre-
=30	=30	=30	=30	=30	=30	=30	=30
0D]	.	0A]	.	2F	.	2d	.
.	.	.	.	4E	.	1f	-ti-
.	.	.	.	4D	.	.	.
.	.	.	.	4F	.	.	.
.	.	.	.	4G	.	.	.
.	.	.	.	4A	.	4e	.
.	.	.	.	4B	.	4d	.
[1C	-ti-	2A	-ti-	2.c	.	1e	.
.	.	[2G	.	.	.	.	.
.	.	.	.	4d	.	.	.
=31	=31	=31	=31	=31	=31	=31	=31
0.C_	.	0G_	.	0e	-si,	2c	.
.	.	.	.	.	.	1cc	.
.	.	.	.	.	.	4b	.
.	.	.	.	.	.	4a	.
.	.	2G]	.	2r	.	4g	.
.	.	.	.	.	.	4f	.
.	.	2G	-o-	[2c	pre-	4e	.
.	.	.	.	.	.	4d	.
=32	=32	=32	=32	=32	=32	=32	=32
1C]	.	0.A	.	1c]	.	4c	.
.	.	.	.	.	.	2f	-o-
.	.	.	.	.	.	4f	-si,
[0D	-o-	.	.	1.F	-ti-	2f	pre-
.	.	.	.	.	.	2d	.
.	.	.	.	.	.	2.f	-ti-
.	.	.	.	2D	.	.	.
.	.	.	.	.	.	4g	.
=33	=33	=33	=33	=33	=33	=33	=33
1D]	.	0.A	-si,	2.F	-o-	1.a	.
.	.	.	.	4G	.	.	.
0D	-si,	.	.	4A	.	.	.
.	.	.	.	4D	.	.	.
.	.	.	.	2.d	.	2f	.
.	.	.	.	.	.	2f	-o-
.	.	.	.	4c	.	.	.
.	.	.	.	4d	.	[2a	.
.	.	.	.	4e	.	.	.
=34	=34	=34	=34	=34	=34	=34	=34
1%3r	.	1%3r	.	2.f	.	4a]	.
.	.	.	.	.	.	4g	.
.	.	.	.	.	.	4a	.
.	.	.	.	4g	.	4b	.
.	.	.	.	2e	.	4cc	.
.	.	.	.	.	.	4a	.
.	.	.	.	2d	.	1dd	.
.	.	.	.	1e	-si,	.	.
.	.	.	.	.	.	2cc#i	.
=35	=35	=35	=35	=35	=35	=35	=35
0D	quem	0.A	quem	2r	.	1dd	-si,
.	.	.	.	2d	quem	.	.
.	.	.	.	1f	in	2r	.
.	.	.	.	.	.	1a	quem
[1F	in	.	.	1c	mun-	.	.
.	.	.	.	.	.	[2cc	in
=36	=36	=36	=36	=36	=36	=36	=36
1F]	.	0c	in	2.c	-di,	1.cc]	.
.	.	.	.	4d	.	.	.
0C	mun-	.	.	1e	.	.	.
.	.	.	.	.	.	1g	mun-
.	.	[1G	mun-	2r	.	.	.
.	.	.	.	2e	quem	2g	-di
=37	=37	=37	=37	=37	=37	=37	=37
1C	-di	0G]	.	1g	in	4e	pre-
.	.	.	.	.	.	4f	.
.	.	.	.	.	.	4g	.
.	.	.	.	.	.	4a	.
1r	.	.	.	1d	mun-	4b	.
.	.	.	.	.	.	4a	.
.	.	.	.	.	.	4b	.
.	.	.	.	.	.	4cc	.
2r	.	[1G	-di	2d	-di	2dd	.
[2E	pre-	.	.	[2B	pre-	[2g	-ti-
=38	=38	=38	=38	=38	=38	=38	=38
2E]	.	1G]	.	2B]	.	2g]	.
2C	.	.	.	2c	.	2e	.
1.D	.	[0F	pre-	0A	-ti-	1f	.
.	.	.	.	.	.	2d	.
2AA	.	.	.	.	.	[2f	-um,
=39	=39	=39	=39	=39	=39	=39	=39
1BB-X	.	1F]	.	1D	-um,	2f]	.
.	.	.	.	.	.	4e	.
.	.	.	.	.	.	4d	.
0AA	-ti-	0A	-ti-	1E	.	0c	.
.	.	.	.	2.e	pre-	.	.
.	.	.	.	4c	.	.	.
=40	=40	=40	=40	=40	=40	=40	=40
1D	-um,	2.A	-um	2d	.	2r	.
.	.	.	.	2A	-ti-	2f	pre-
.	.	4F	.	.	.	.	.
1r	.	2A	.	1B	-um,	2e	.
.	.	2D	.	.	.	1d	.
1AA	quem	1E	.	1A	.	.	.
.	.	.	.	.	.	2c#i	-ti-
=41	=41	=41	=41	=41	=41	=41	=41
1r	.	1D	.	2.d	pre-	2d	-um,
.	.	.	.	.	.	2b	pre-
.	.	.	.	4B	.	.	.
2r	.	1r	.	2c	.	2a	.
2E	in	.	.	2G	-ti-	1g	.
2C	mun-	1r	.	1A	-um,	.	.
2D	-di	.	.	.	.	2f#i	-ti-
=42	=42	=42	=42	=42	=42	=42	=42
2GG	pre-	1%3r	.	2.G	pre-	2g	-um,
2C	.	.	.	.	.	2e	pre-
.	.	.	.	4E	.	.	.
2BB-X	-ti-	.	.	2F	.	2d	.
2AA	.	.	.	2C	.	1c	.
1GG	.	.	.	1D	-ti-	.	.
.	.	.	.	.	.	2B	-ti-
=43	=43	=43	=43	=43	=43	=43	=43
1C	-um,	0G	fru-	2C	-um	1c	-um
.	.	.	.	2c	fru-	.	.
2r	.	.	.	2B	.	2d	fru-
1.C	pre-	.	.	2.c	-ctus	1e	.
.	.	1G	-ctus	.	.	.	.
.	.	.	.	4B	.	.	.
.	.	.	.	2G	.	2c	.
=44	=44	=44	=44	=44	=44	=44	=44
2BB	.	0G	ven-	2r	.	2d	.
2.C	-ti-	.	.	2.E	ven-	2.e	.
4BB	.	.	.	4F	.	4d	.
2GG	.	.	.	2G	.	2B	.
2AA	.	1E	-tris	2C	.	2c	-ctus
2C	.	.	.	2c	.	2e	.
=45	=45	=45	=45	=45	=45	=45	=45
2BB	.	0G	ge-	2d	.	2d	.
2.C	-um	.	.	2.e	.	2c	.
.	.	.	.	.	.	1g	ven-
4BB	.	.	.	4d	.	.	.
2GG	.	.	.	2B	.	.	.
2r	.	1A	-ne-	2c	.	2e	-tris
2D	fru-	.	.	2F	-tris	2f	.
=46	=46	=46	=46	=46	=46	=46	=46
2C	.	0A	-ro-	2r	.	2e	.
2.D	-ctus	.	.	2.F	ge-	2.f	ge-
4C	.	.	.	4G	.	4e	.
2AA	.	.	.	2A	-ne-	2c	-ne-
2.BB-X	ven-	1G	-si	2.D	-ro-	1d	-ro-
4AA	.	.	.	4E	.	.	.
=47	=47	=47	=47	=47	=47	=47	=47
1FF	-tris	[0.A	Rex	2.F	-si,	2c	-si
.	.	.	.	.	.	2.cc	Rex
.	.	.	.	4G	.	.	.
2r	.	.	.	4A	.	.	.
.	.	.	.	4B	.	4b	.
2.F	ge-	.	.	1.c	.	2.a	.
4E	.	.	.	.	.	4g	.
2C	-ne-	.	.	.	.	2e	.
=48	=48	=48	=48	=48	=48	=48	=48
2.D	-ro-	1A]	.	2.F	ge-	1f	.
4C	.	.	.	4G	.	.	.
2AA	-si,	[0c	ef-	2.A	-ne-	2e	.
2.A	ge-	.	.	.	.	2.cc	ef-
.	.	.	.	4B	.	.	.
.	.	.	.	4c	.	.	.
4G	.	.	.	4d	.	4b	.
2E	-ne-	.	.	2e	.	2g	.
=49	=49	=49	=49	=49	=49	=49	=49
2.F	-ro-	0c]	.	1.A	-ro-	2.a	-fu-
4E	.	.	.	.	.	4g	.
1C	-si,	.	.	.	.	2.e	.
.	.	.	.	1G	-si,	.	.
.	.	.	.	.	.	4f	.
2r	.	[1G	-fu-	.	.	2.g	.
[2E	[ge-	.	.	[2g	ge-	.	.
.	.	.	.	.	.	4a	.
=50	=50	=50	=50	=50	=50	=50	=50
4E]	.	0.G]	.	4g]	.	1b	.
4D	.	.	.	4f	.	.	.
2BB	-ne-	.	.	2d	-ne-	.	.
2.C	-ro-	.	.	2.e	-ro-	1g	.
4BB	.	.	.	4d	.	.	.
1GG	.	.	.	2B	.	1b	-dit,
.	.	.	.	[2d	-si	.	.
=51	=51	=51	=51	=51	=51	=51	=51
0D	-si]	[0.A	-dit	4d]	.	2r	.
.	.	.	.	4c	.	.	.
.	.	.	.	4d	.	2.a	[Rex]
.	.	.	.	4e	.	.	.
.	.	.	.	1f	.	.	.
.	.	.	.	.	.	4g	.
.	.	.	.	.	.	4a	.
.	.	.	.	.	.	4b	.
1r	.	.	.	[1e	Rex	1cc	.
=52	=52	=52	=52	=52	=52	=52	=52
2r	.	0.A]	.	2e]	.	1r	.
2D	Rex	.	.	2.f	ef-	.	.
4D	ef-	.	.	.	.	2r	.
4C	.	.	.	4c	.	.	.
4D	.	.	.	4d	-fu-	2.a	ef-
4E	.	.	.	4c	.	.	.
1F	-fu-	.	.	4d	.	.	.
.	.	.	.	2e	.	4g	.
.	.	.	.	.	.	4a	.
.	.	.	.	4d	.	4b	.
=53	=53	=53	=53	=53	=53	=53	=53
0.E	-dit,	[0.G	.	0e	-dit	1cc	-fu-
.	.	.	.	.	.	1b	-dit,
.	.	.	.	2r	.	2r	.
.	.	.	.	[2e	gen-	[2g	[ef-
=54	=54	=54	=54	=54	=54	=54	=54
2r	.	0G]	.	4e]	.	4g]	.
.	.	.	.	4d	.	4f	.
2C	ef-	.	.	4e	.	4g	.
.	.	.	.	4f	.	4a	.
2BB-X	-fu-	.	.	2g	.	1b-i	-fu-
2GG	.	.	.	2.d	.	.	.
[1D	-dit,	[1F	gen-	.	.	1a	-dit]
.	.	.	.	4c	.	.	.
.	.	.	.	4d	.	.	.
.	.	.	.	4e	.	.	.
=55	=55	=55	=55	=55	=55	=55	=55
1D]	.	0.F]	.	2.f	.	2r	.
.	.	.	.	.	.	2.f	gen-
.	.	.	.	4e	.	.	.
2r	.	.	.	2c	.	.	.
.	.	.	.	.	.	4e	.
2BB-X	ef-	.	.	2d	-ti-	4f	.
.	.	.	.	.	.	4g	.
2AA	-fu-	.	.	1c	-um,	1a	.
2FF	.	.	.	.	.	.	.
=56	=56	=56	=56	=56	=56	=56	=56
0C	-dit,	0.E	.	2r	.	2g	-ti-
.	.	.	.	2.c	gen-	2.e	-um,
.	.	.	.	4B	.	4d	.
.	.	.	.	4c	.	4e	.
.	.	.	.	4d	.	4f	.
2r	.	.	.	2e	.	1g	.
[2GG	ef-	.	.	[2B	.	.	.
=57	=57	=57	=57	=57	=57	=57	=57
4GG]	.	0D	-ti-	4B]	.	1r	.
4FF	.	.	.	4A	.	.	.
4GG	.	.	.	4G	.	.	.
4AA	.	.	.	4F	.	.	.
1BB	-fu-	.	.	4G	.	1dd	gen-
.	.	.	.	2A	.	.	.
.	.	.	.	4G	.	.	.
1AA	-dit	1E	.	1A	.	2.cc	.
.	.	.	.	.	.	4a	.
=58	=58	=58	=58	=58	=58	=58	=58
2r	.	0.E	-um,	2G	.	2b	.
2AA	gen-	.	.	2c	.	1e	.
2GG	.	.	.	2B	.	.	.
2AA	.	.	.	2A	.	2.a	.
1E	.	.	.	1B	-ti-	.	.
.	.	.	.	.	.	4f	.
.	.	.	.	.	.	2g	.
=59	=59	=59	=59	=59	=59	=59	=59
2F	.	1%3r	.	2A	-um,	2c	.
2D	.	.	.	2d	gen-	1f	.
1.A	.	.	.	1.c	.	.	.
.	.	.	.	.	.	2.e	.
.	.	.	.	.	.	4d	.
2E	-ti-	.	.	2B	-ti-	4e	.
.	.	.	.	.	.	4f	.
=60	=60	=60	=60	=60	=60	=60	=60
2.E	-um,	1r	.	2.B	-um,	4g	.
.	.	.	.	.	.	4e	.
.	.	.	.	.	.	2.g	.
4F	.	.	.	4A	.	.	.
2G	.	1r	.	2B	.	.	.
.	.	.	.	.	.	4f	.
2A	.	.	.	2c	.	2.e	.
1F	.	2r	.	1A	.	.	.
.	.	.	.	.	.	4d	.
.	.	2d	Rex	.	.	[2a	.
=61	=61	=61	=61	=61	=61	=61	=61
1E	.	1.e	ef-	1B	.	2a]	.
.	.	.	.	.	.	2g#i	-ti-
2r	.	.	.	1A	.	1a	-um,
1F	gen-	2A	-fu-	.	.	.	.
.	.	2A	-dit	2r	.	1r	.
2C	-ti-	[2c	gen-	[2e	gen-	.	.
=62	=62	=62	=62	=62	=62	=62	=62
2C	-um,	2c]	.	2e]	.	1%3r	.
1D	gen-	2F	-ti-	2A	-ti-	.	.
.	.	1F	-um,	1A	-um,	.	.
2AA	-ti-	.	.	.	.	.	.
1AA	-um,	[1A	gen-	2r	.	.	.
.	.	.	.	[2c	gen-	.	.
=63	=63	=63	=63	=63	=63	=63	=63
2r	.	2A]	.	2c]	.	1r	.
1BB-X	gen-	2D	-ti-	2F	-ti-	.	.
.	.	2D	-um,	0F	-um,	1r	.
2FF	-ti-	1F	gen-	.	.	.	.
[1FF	-um,	.	.	.	.	2r	.
.	.	2C	-ti-	.	.	[2cc	gen-
=64	=64	=64	=64	=64	=64	=64	=64
1FF]	.	1C	-um,	[0.A	.	2cc]	.
.	.	.	.	.	.	2f	-ti-
1.F	gen-	1.D	gen-	.	.	2.f	-um.
.	.	.	.	.	.	4e	.
.	.	.	.	.	.	2d	.
2E	-ti-	2AA	-ti-	.	.	[2c	.
=65	=65	=65	=65	=65	=65	=65	=65
1E	-um,	1AA	-um,	1A]	.	4c]	.
.	.	.	.	.	.	4d	.
.	.	.	.	.	.	2e	.
1.D	gen-	1.A	gen-	2r	.	1f	.
.	.	.	.	2.A	gen-	.	.
.	.	.	.	.	.	2d	.
.	.	.	.	4B	.	.	.
2C	-ti-	2E	-ti-	2c	.	4e	.
.	.	.	.	.	.	4d	.
=66	=66	=66	=66	=66	=66	=66	=66
2.C	-um,	2.E	-um.	2G	.	4e	.
.	.	.	.	.	.	4f	.
.	.	.	.	2c	.	2.g	.
4D	.	4F	.	.	.	.	.
2E	.	2G	.	2B	.	.	.
.	.	.	.	.	.	4f	.
2AA	.	2A	.	2c	.	1e	.
2r	.	1F	.	2A	.	.	.
2A	gen-	.	.	2D	.	2d	.
=67	=67	=67	=67	=67	=67	=67	=67
1.B	.	[0.El	.	1.G	.	[0.el	.
2E	-ti-	.	.	2C	-ti-	.	.
2E	-um,	.	.	[1C	-um,	.	.
[2G	gen-	.	.	.	.	.	.
=68	=68	=68	=68	=68	=68	=68	=68
2G]	.	0.E_	.	1C]	.	0.e_	.
2C	-ti-	.	.	.	.	.	.
1C	-um,	.	.	2r	.	.	.
.	.	.	.	2c	gen-	.	.
[1E	gen-	.	.	2.B	.	.	.
.	.	.	.	4A	.	.	.
=69	=69	=69	=69	=69	=69	=69	=69
2E]	.	0.E_	.	2B	.	0.e_	.
2AA	-ti-	.	.	2.c	.	.	.
2AA	-um,	.	.	.	.	.	.
.	.	.	.	4B	.	.	.
1C	gen-	.	.	4A	.	.	.
.	.	.	.	4G	.	.	.
.	.	.	.	4A	.	.	.
.	.	.	.	4E	.	.	.
2FF	-ti-	.	.	[2A	.	.	.
=70	=70	=70	=70	=70	=70	=70	=70
1FF	-um,	0.E_	.	2A]	.	0.e_	.
.	.	.	.	2G	.	.	.
1.AA	gen-	.	.	1.c	.	.	.
2EE	-ti-	.	.	2B	-ti-	.	.
=71	=71	=71	=71	=71	=71	=71	=71
00EEl	.	00E]	.	00Bl	.	00e]	.
==	==	==	==	==	==	==	==
*-	*-	*-	*-	*-	*-	*-	*-
!!!system-decoration: [*]
!!!RDF**kern: i = editorial accidental
!!!RDF**kern: l = terminal long
!!!!PTL: <i> New Senfl Edition: Motets for Four Voices (N-V) </i>
!!!PPR: Hollitzer Verlag
!!!PC#: Denkmäler der Tonkunst in Österreich 163.2
!!!PDT: 2022
!!!PED: Scott Lee Edwards, Stefan Gasch, and Sonja Tröster
!!!YEC: Copyright 2022 Denkmäler der Tonkunst in Österreich
!!!YEM: CC-BY-NC 4.0 (https://creativecommons.org/licenses/by-nc/4.0/legalcode)
!!!EED: Benjamin Ory
!!!EEV: 2024/2/25
!!!verovio: header true
!!!header-left: @{PTL}\n@{PED}, eds.\n@{PC#} (@{PDT})&nbsp;\n
!!!header-right:
!!!header-center: